resources/haticons/SVG/align-right.svg

<!-- Generated by IcoMoon.io -->
<svg version="1.1" xmlns="http://www.w3.org/2000/svg" width="24" height="24" viewBox="0 0 24 24">
<title>align-right</title>
<path d="M0.731 22.63h22.538c0.377 0 0.685 0.308 0.685 0.685s-0.308 0.685-0.685 0.685h-22.538c-0.377 0-0.685-0.308-0.685-0.685s0.3-0.685 0.685-0.685zM9.291 16.972h13.978c0.377 0 0.685 0.308 0.685 0.685s-0.308 0.685-0.685 0.685h-13.978c-0.377 0-0.685-0.308-0.685-0.685s0.308-0.685 0.685-0.685zM0.731 11.315h22.538c0.377 0 0.685 0.308 0.685 0.685s-0.308 0.685-0.685 0.685h-22.538c-0.377 0-0.685-0.308-0.685-0.685s0.3-0.685 0.685-0.685zM9.291 5.657h13.978c0.377 0 0.685 0.308 0.685 0.685s-0.308 0.685-0.685 0.685h-13.978c-0.377 0-0.685-0.308-0.685-0.685s0.308-0.685 0.685-0.685zM0.731 0h22.538c0.377 0 0.685 0.308 0.685 0.685s-0.308 0.685-0.685 0.685h-22.538c-0.377 0-0.685-0.308-0.685-0.685s0.3-0.685 0.685-0.685z"></path>
</svg>

<svg xmlns="http://www.w3.org/2000/svg" width="24" height="24"><path d="M.731 22.63h22.538c.377 0 .685.308.685.685s-.308.685-.685.685H.731c-.377 0-.685-.308-.685-.685s.3-.685.685-.685zm8.56-5.658h13.978c.377 0 .685.308.685.685s-.308.685-.685.685H9.291c-.377 0-.685-.308-.685-.685s.308-.685.685-.685zm-8.56-5.657h22.538c.377 0 .685.308.685.685s-.308.685-.685.685H.731c-.377 0-.685-.308-.685-.685s.3-.685.685-.685zm8.56-5.658h13.978c.377 0 .685.308.685.685s-.308.685-.685.685H9.291c-.377 0-.685-.308-.685-.685s.308-.685.685-.685zM.731 0h22.538c.377 0 .685.308.685.685s-.308.685-.685.685H.731c-.377 0-.685-.308-.685-.685S.346 0 .731 0z"/></svg>
